X:1
T:071 - Amigo Eterno
T:Letra: Salomão Luiz Ginsburg (1867-1927)
T:Música: Horatio Richmond Palmer (1834-1907)
M:6/8
L:1/8
Q:1/4=90
K:G
V:1
D | "G"D3/G/G G3/F/G | B3 d2d | "D"d3/A/A AGA | "G"B3- B2D | D3/G/G G3/F/G | B3 d2B | "D/A"A3/A/A "A7"AB^c | "D"d3- d2D | "D7"c3/c/c cdc | "G"B3 d2B | "D7"c3/c/c Ad3/c/ | "G"B3- B2B | "B"B3/B/B B3/B/B | "Em"B3 B2B | "D7"c3/c/E F3/E/D | "G"G3- Gz || D | "G"G3/G/G G3/F/G | B3- B2D | B3/B/B B3/A/B | d3- dzd | "D"d3/e/A A2d | "G"d3/e/B B2d | "D"d3/e/d "D7"c3/B/A | "G"G3- Gz |]
w: 1.~Ir-mãos, to-dos jun-tos lou-ve-mos A Cris-to Je-sus, nos-so Deus,_ Pois mui-tos têm si-doos fa-vo-res Que de-le ti-ve-ram os seus._ Sim, mui-to nós te-mos so-fri-do Dein-cré-du-los e fa-ri-seus._ A-le-gres, ir-mãos, pros-si-ga-mos Na sen-da que vai pa-raos céus!_     Oh! Sim, pros-si-ga-mos, ir-mãos,_    Na sen-da que vai pa-raos céus!_    A-le-gres, ir-mãos! A-le-gres, ir-mãos!       Na sen-da que vai pa-raos céus!_
w: 2.~E, cren-tes, lem-brai-vos, por-tan-to, De to-dos quees-tão ao re-dor,_ Os quais in-da ja-zem nas tre-vas, Não cren-doem Je-sus, Sal-va-dor._ A-ler-ta, pois, cren-tes, a-ler-ta! Fir-me-za no bom Re-den-tor;_ E, gra-tos, a ca-da mo-men-to Fa-lai, pois, do seu gran-dea-mor._
w: 3.~Cui-dai bem de vos-sos de-ve-res; De Deus não se de-ve zom-bar;_ Ou-ví sem-pre, sem-pre,a seu Fi-lho Eas-sim nun-caha-veis de fa-lhar._ Je-sus é a-mi-go mui ter-no, É fir-me, fi-el e sem par;_ O seu gran-dea-mor e seu bra-ço De tu-do vos po-dem li-vrar._
W: 
W:
W: 1. Irmãos, todos juntos louvemos
W: A Cristo Jesus, nosso Deus,
W: Pois muitos têm sido os favores
W: Que dele tiveram os seus.
W: Sim, muito nós temos sofrido
W: De incrédulos e fariseus.
W: Alegres, irmãos, prossigamos
W: Na senda que vai para os céus!
W: 
W:    (Estribilho)
W:    Oh! Sim, prossigamos, irmãos,
W:    Na senda que vai para os céus!
W:    Alegres, irmãos! Alegres, irmãos!   
W:    Na senda que vai para os céus!
W: 
W:
W:
W: 2. E, crentes, lembrai-vos, portanto,
W: De todos que estão ao redor,
W: Os quais inda jazem nas trevas,
W: Não crendo em Jesus, Salvador.
W: Alerta, pois, crentes, alerta!
W: Firmeza no bom Redentor;
W: E, gratos, a cada momento
W: Falai, pois, do seu grande amor.
W: 
W: 3. Cuidai bem de vossos deveres;
W: De Deus não se deve zombar;
W: Ouví sempre, sempre, a seu Filho
W: E assim nunca haveis de falhar.
W: Jesus é amigo mui terno,
W: É firme, fiel e sem par;
W: O seu grande amor e seu braço
W: De tudo vos podem livrar.
W:         
W: 





%wordsfont Times-Roman 13.0
%vocalfont Times-Roman 13.0
